lib/brands/logos/ashp.svg

<svg xmlns="http://www.w3.org/2000/svg" fill="none" aria-hidden="true" viewBox="0 0 146 81"><g id="ASHP"><g id="Group"><path id="Vector" fill="#F58220" d="M131.388 27.859L142.35 7.51222C127.049 19.7047 101.859 26.3716 88.6592 27.927C90.1932 27.927 131.388 27.859 131.388 27.859Z"/><g id="Vector_2"><path fill="black" d="M34.7058 60.6371H22.5619C23.1118 58.8295 23.8365 57.0798 24.7259 55.4128H24.5859C21.3059 59.3033 17.1879 61.3681 12.3739 61.3681C6.65003 61.3681 3.65002 58.4148 3.65002 52.3545C3.65002 41.5736 11.326 32.3461 26.6099 32.3461C31.1458 32.3461 36.1698 32.5677 40.9858 33.291C38.8218 42.3513 36.2398 52.4109 34.7058 60.6371ZM24.3759 40.2942C19.6319 40.2942 16.5599 46.1854 16.5599 50.4044C16.5599 51.849 16.8399 52.5723 17.8859 52.5723C20.5379 52.5723 25.3539 46.3506 26.4699 41.733L26.7498 40.5664C25.973 40.3768 25.1755 40.2853 24.3759 40.2942Z"/><path fill="black" d="M61.2217 40.1756C59.9613 39.8944 58.675 39.7452 57.3837 39.7304C55.1517 39.7304 54.1737 40.1756 54.1737 41.1205C54.1737 43.1212 61.0836 45.3979 61.0836 51.2307C61.0836 55.897 56.0577 61.2904 43.9158 61.2904C41.8121 61.2849 39.7119 61.1178 37.6338 60.7907L39.7978 52.6248C41.3847 53.0999 43.0278 53.3615 44.6837 53.4025C46.7758 53.4025 47.8237 52.9008 47.8237 52.0687C47.8237 49.3992 41.1938 48.4543 41.1938 42.118C41.1938 36.6157 46.4977 32.3364 57.7337 32.3364C59.6721 32.3331 61.6089 32.448 63.5334 32.6805L61.2217 40.1756Z"/><path fill="black" d="M93.3234 60.6371H80.8374L84.8853 43.7959C85.3733 41.7388 85.0934 41.0739 84.1873 41.0739C82.0234 41.0739 76.9935 46.6325 75.6034 52.4128L73.6436 60.6371H61.1517L70.8516 20.0622H83.3435L81.0318 29.8458C80.3357 32.7349 79.0098 35.6785 77.4738 38.2372H77.6138C80.6838 34.6811 84.5217 32.2897 90.1737 32.2897C97.2936 32.2897 99.1076 36.3474 97.9216 41.2333L93.3234 60.6371Z"/><path fill="black" d="M111.047 61.304C110.348 61.3078 109.649 61.2708 108.953 61.1931L106.023 73.5878H93.5315L100.086 46.1854C101.132 41.7388 102.11 37.3487 102.946 33.013H115.095C114.545 34.8185 113.82 36.5663 112.931 38.2314H113.071C116.351 34.3428 120.469 32.2839 125.283 32.2839C131.007 32.2839 134.007 35.2314 134.007 41.2897C134.007 52.0784 126.333 61.304 111.047 61.304ZM119.771 41.0719C117.119 41.0719 112.303 47.2936 111.187 51.9112L110.907 53.0778C111.684 53.2694 112.481 53.3628 113.281 53.3558C118.025 53.3558 121.097 47.4647 121.097 43.2456C121.097 41.7952 120.817 41.0719 119.771 41.0719Z"/><path fill="black" d="M134.96 32.3014V32.2897C134.959 32.0231 135.011 31.759 135.112 31.5125C135.213 31.2659 135.362 31.0417 135.55 30.8527C135.738 30.6637 135.962 30.5135 136.208 30.4108C136.453 30.3081 136.717 30.2548 136.984 30.254C137.25 30.2533 137.515 30.305 137.761 30.4063C138.008 30.5076 138.232 30.6565 138.421 30.8444C138.61 31.0324 138.76 31.2557 138.863 31.5017C138.965 31.7477 139.019 32.0115 139.02 32.278V32.2897C139.02 32.5563 138.969 32.8204 138.867 33.0669C138.766 33.3135 138.617 33.5377 138.429 33.7267C138.241 33.9157 138.018 34.0659 137.772 34.1686C137.526 34.2713 137.262 34.3246 136.996 34.3253C136.729 34.3261 136.465 34.2744 136.218 34.1731C135.972 34.0718 135.748 33.9229 135.559 33.7349C135.369 33.547 135.219 33.3237 135.117 33.0777C135.014 32.8317 134.961 32.5679 134.96 32.3014ZM138.786 32.2897V32.278C138.785 32.0421 138.738 31.8086 138.647 31.591C138.556 31.3733 138.423 31.1757 138.256 31.0094C138.089 30.8431 137.89 30.7115 137.672 30.6219C137.454 30.5323 137.22 30.4866 136.984 30.4874C136.748 30.4881 136.514 30.5354 136.297 30.6263C136.079 30.7173 135.882 30.8503 135.715 31.0177C135.549 31.185 135.417 31.3835 135.328 31.6018C135.238 31.82 135.192 32.0538 135.193 32.2897V32.3014C135.19 32.5385 135.234 32.7739 135.323 32.9938C135.412 33.2137 135.544 33.4137 135.711 33.582C135.878 33.7504 136.077 33.8837 136.296 33.9743C136.516 34.0649 136.751 34.1108 136.988 34.1095C137.226 34.109 137.461 34.0615 137.68 33.9696C137.9 33.8777 138.099 33.7433 138.266 33.5741C138.433 33.4049 138.565 33.2043 138.654 32.9839C138.744 32.7635 138.788 32.5275 138.786 32.2897ZM136.196 31.2165H137.13C137.585 31.2165 137.923 31.4381 137.923 31.8697C137.929 32.0142 137.884 32.156 137.796 32.271C137.708 32.386 137.583 32.4668 137.443 32.4997L137.991 33.2774H137.515L137.027 32.5697H136.595V33.2813H136.206L136.196 31.2165ZM137.095 32.243C137.361 32.243 137.515 32.103 137.515 31.9047C137.515 31.7064 137.361 31.5664 137.095 31.5664H136.593V32.243H137.095Z"/></g></g></g></svg>

<svg xmlns="http://www.w3.org/2000/svg" fill="none" aria-hidden="true" viewBox="0 0 146 81"><path fill="#F58220" d="M131.388 27.859 142.35 7.512c-15.301 12.193-40.491 18.86-53.69 20.415 1.533 0 42.728-.068 42.728-.068Z"/><path fill="#000" d="M34.706 60.637H22.562a29.075 29.075 0 0 1 2.164-5.224h-.14c-3.28 3.89-7.398 5.955-12.212 5.955-5.724 0-8.724-2.953-8.724-9.014 0-10.78 7.676-20.008 22.96-20.008 4.536 0 9.56.222 14.376.945-2.164 9.06-4.746 19.12-6.28 27.346Zm-10.33-20.343c-4.744 0-7.816 5.891-7.816 10.11 0 1.445.28 2.168 1.326 2.168 2.652 0 7.468-6.221 8.584-10.839l.28-1.167a9.563 9.563 0 0 0-2.374-.272Zm36.846-.118a18.605 18.605 0 0 0-3.838-.446c-2.232 0-3.21.446-3.21 1.39 0 2.001 6.91 4.278 6.91 10.11 0 4.667-5.026 10.06-17.168 10.06a41.093 41.093 0 0 1-6.282-.5l2.164-8.165c1.587.475 3.23.736 4.886.778 2.092 0 3.14-.502 3.14-1.334 0-2.67-6.63-3.615-6.63-9.951 0-5.502 5.304-9.782 16.54-9.782a47.678 47.678 0 0 1 5.8.345l-2.312 7.495Zm32.101 20.461H80.837l4.048-16.841c.488-2.057.208-2.722-.698-2.722-2.164 0-7.194 5.559-8.584 11.339l-1.96 8.224h-12.49l9.7-40.575h12.492l-2.312 9.784c-.696 2.889-2.022 5.832-3.558 8.391h.14c3.07-3.556 6.908-5.947 12.56-5.947 7.12 0 8.934 4.057 7.748 8.943l-4.599 19.404Zm17.724.667a17.99 17.99 0 0 1-2.094-.11l-2.93 12.394H93.531l6.555-27.403c1.046-4.446 2.024-8.836 2.86-13.172h12.149a29.062 29.062 0 0 1-2.164 5.218h.14c3.28-3.888 7.398-5.947 12.212-5.947 5.724 0 8.724 2.947 8.724 9.006 0 10.788-7.674 20.014-22.96 20.014Zm8.724-20.232c-2.652 0-7.468 6.222-8.584 10.84l-.28 1.166a9.563 9.563 0 0 0 2.374.278c4.744 0 7.816-5.891 7.816-10.11 0-1.45-.28-2.174-1.326-2.174Zm15.189-8.771v-.011a2.03 2.03 0 1 1 4.06-.012v.012a2.031 2.031 0 0 1-3.903.788 2.03 2.03 0 0 1-.157-.777Zm3.826-.011v-.012a1.8 1.8 0 0 0-1.114-1.656 1.794 1.794 0 0 0-2.344.98c-.09.218-.136.452-.135.688v.011a1.785 1.785 0 0 0 1.795 1.808 1.797 1.797 0 0 0 1.666-1.125c.09-.22.134-.456.132-.694Zm-2.59-1.073h.934c.455 0 .793.221.793.653a.618.618 0 0 1-.48.63l.548.777h-.476l-.488-.707h-.432v.711h-.389l-.01-2.064Zm.899 1.026c.266 0 .42-.14.42-.338 0-.199-.154-.339-.42-.339h-.502v.677h.502Z"/></svg>
